X:1
T:Moriro cor mio
T:Moriro cor mio
T:Francesco Farina
T:Source: Melodia Olympica---Anversa---P.Phalesio & G.Bellero---1591. Editor: André Vierendeels (08/01/14).
C:Francesco Farina
%%score [ 1 2 3 4 ]
L:1/8
Q:1/4=96
M:4/4
K:C
V:1 treble nm="Canto 1" snm="C1"
V:2 treble nm="Canto 2" snm="C 2"
V:3 treble nm="Alto" snm="A"
V:4 treble-8 nm="Tenor" snm="T"
V:1
 z4 e4- | e2 d2 d4 | c4 B4 | B4 z2 Bc | d2 d2 B4 | c2 c4 B2 | B4 A4 | A4 ^G4 | %8
w: Mo-|* ri- ro|cor mi-|o, mo- ri-|ro, mo- ri-|ro, mo- ri-|ro cor|mi- o,|
"^-natural" z2 GA B2 GA | B2 A2 ^G4 | A4 z2 cd | e4 z2 cd | ed cB c2 B2 | A4 A4 | z2 c4 c2 | %15
w: mo- ri- ro, mo- ri-|ro cor mi-|o, mo- ri-|ro, mo- ri-|ro _ _ _ _ cor|mi- o,|poi che|
 c4 e2 e2 | d4 ^c4 | z2 d4 e2 | f4 e4 | z4 e2 e2 | f2 e4 d2 | e2 d4 e2 | f4 e2 d2 | ^c4 z2 f2 | %24
w: n'ai gran de-|si- o,|e mo-|ren- do,|e mo-|ren- do per|te, e mo-|ren- do per|te, so-|
 e2 d2 e4 | e4 z4 | z2 d4 c2 | B4 B4 |"^-natural" g6 f2 | e4 e2 d2 | c4 z2 _B2 | A2 G2 A4 | %32
w: la'u- be- di-|re,|e mo-|ren- do,|e mo-|ren- do per|te, so-|la'u- be- di-|
 A2 d2 c3 B | A2 G2 ^F4 | G2 d2 f3 e | d2 c2 B4 | ^c2 d4 c2 | f4 e2 e2 | f3 e d2 c2 | B2 A4 G2- | %40
w: re, non sen- ti-|ro la do-|glia, non sen- ti-|ro la do-|glia del mo-|ri- re, non|sen- ti- ro la|do- glia del|
 G2 F2 B4 | A4 G4 | z2 d3 d d2 | e3 d c2 c2 | d4 B2 e2- | ee e2 f3 e | dc d4 A2 | c2 B2 z2 e2- | %48
w: _ mo- ri-|* re,|sen- ti- ro|ben _ _ tor-|men- to, sen-|* ti- ro ben _|_ _ _ tor-|men- to,- sen-|
 ee e2 f4 | e2 d4 ^c2 | d8 | z8 | z2 f3 f f2 | e2 c2 dc de | fe dc B2 A2 | e2 c2 B4 | c8 | %57
w: * ti- ro ben|tor- men- *|to,||del tuo'in- giu-|sto gio- ir, _ _ _|_ _ _ _ _ del|tuo con- ten-|to,|
 z2 g2 f2 d2 | f2 e2 e2 e2 | d2 c2 d4 | e4 z2 c2 | d2 e2 f2 d2 | cB cd e4 | z2 e2 ed ef | %64
w: del tuo'in- giu-|sto gio- ir del|tuo con- ten-|to, del|tuo'in- giu- sto gio-|ir, _ _ _ _|gio- ir, _ _ _|
 g2 g2 gf ed | e2 g4 f2- | fe dc B2 A2 | e8 | e8 |] %69
w: _ gio- ir, _ _ _|_ del tuo|_ _ _ _ _ con-|ten-|to.|
V:2
 c6 B2 | B4 A4 | A4 ^G4 |"^-natural" z2 GA B4- | B2 A2 ^G4 | A4 z4 | z8 | z4 z2 EF | %8
w: Mo- ri-|ro cor|mi- o,|mo- ri- ro|_ cor mi-|o,||mo- ri-|
"^-natural" G4 z2 EF |"^-natural" G2 F2 E4 | E2 CD E4 | z2 CD E4 | z2 EF G2 G2 | E4 ^F4 | %14
w: ro, mo- ri-|ro cor mi-|o, mo- ri- ro,|mo- ri- ro,|mo- ri- ro cor|mi- o,|
 z2 G4 G2 | G4 c2 c2 | A4 A4 | z2 A4 A2 | A4 A4 |"^-natural" z2 c4 B2 | c4 B2 A2 | B4 A4 | %22
w: poi che|n'ai gran de-|si- o,|e mo-|ren- do,|e mo-|ren- do per|te, e|
 _B2 A3 G G2 | A4 z2 d2 | B2 A2 B4 | c4 z2 B2- | B2 A4 ^G2- | G2 ^G2 z4 | e6 d2 | c4 c2 B2 | %30
w: mo- ren- do per|te, so-|la'u- be- di-|re, e|_ mo- ren-|* do,|e mo-|ren- do per|
 A4 z2 G2 | E2 D2 E4 | F4 z4 | z8 | z2 G2 A3 G | F2 E2 D2 G2 | E2 F2 A4 | A4 z2 A2 | %38
w: te, so-|la'u- be- di-|re,||non sen- ti-|ro la do- glia|del mo- ri-|re, non|
"^-natural" d3 c B2 A2 | G2 c4 B2- | B2 A4 G2- | G2 ^F2 G4 | z4 B3 B | B2 c3 B AG | A2 B3 B B2 | %45
w: sen- ti- ro la|do- glia del|_ mo- ri-|* * re,|sen- ti-|ro ben, _ _ _|_ sen- ti- ro|
 c3 B AG A2- | A2 _B2 A4 | e2 e3 e e2 |"^#" A2 B2 cB AG | A8 | A2 d3 d d2 | c2 A2 BA Bc | %52
w: ben _ _ _ _|_ tor- men-|to, sen- ti- ro|ben tor- men- * * *||to, del tuo'in- giu-|sto gio- ir _ _ _|
 d3 c/B/ AG AB | c4 B4 | A2 A2 d3 c | B2 A4 ^G2 | A4 z2 c2 | B2 A3 A B2 | c4 c4 | A2 G2 A4 | %60
w: _ _ _ _ _ _ _|* del|tuo con- ten- *||to, del|tuo'in- giu- sto gio-|ir del|tuo con- ten-|
 c4 z2 A2 | B2 c2 d2 A2 | AG AB c4 | z2 c2 cB cd | e3 d/c/ B2 c2 | c2 c2 A4 | d2 A2 d3 c | %67
w: to, del|tuo'in- giu- sto gio-|ir, _ _ _ _|gio- ir, _ _ _|_ _ _ _ del|tuo con- ten-|to, del tuo _|
 B2 c2 B4 | ^c8 |] %69
w: _ con- ten-|to.|
V:3
 A6 G2 | G4 F4 | E4 E4 | z2 EF G4- | G2 D2 E4 | A,4 z2 E2- | E2 D2 D4 | C4 B,4 | B,4 z2 B,C | %9
w: Mo- ri-|ro cor|mi- o,|mo- ri- ro|_ cor mi-|o, mo-|* ri- ro|cor mi-|o, mo- ri-|
 D2 D2 B,4 | A,2 A,B, C4 | z2 A,B, C4 | z2 CD E2 D2 | ^C4 D4 | z2 E4 E2 | E4 G2 G2 | F4 E4 | %17
w: ro cor mi-|o, mo- ri- ro,|mo- ri- ro,|mo- ri- ro cor|mi- o,|poi che|n'ai gran de-|si- o,|
 z2 F4 E2 | D4 ^C4 | z2 A4 ^G2 | A4 G2 F2 | E2 F4 E2 | D4 A,2 D2 | E4 z2 A2 | G2 A4 ^G2 | %25
w: e mo-|ren- do,|e mo-|ren- do per|te, e mo-|ren- do per-|te, so-|la'u- be- di-|
 A4 z2 G2 | D4 E4 |"^-natural" E4 z2 G2- | G2 F2 E4 | E2 D2 C4 | z4 z2 D2 | C2 D4 ^C2 | %32
w: re, e|mo- ren-|do, e|_ mo- ren-|do per te,|so-|la'u- be- di|
 D2 F2 G3 F | E2 D2 C4 | D8 | z4 z2 D2 | A3 G F2 E2- | E2 D4 ^C2 | D4 D4 | E8 | D8- | D4 z4 | %42
w: re, non sen- ti-|ro la do-|glia,|non|sen- ti- re la|_ do- glia|del mo-|ri-|re,|_|
 z4 G3 G | G2 A3 G FE | D2 D2 E3 D | CB, A,4 D2 | z2 F3 F F2 | G3 F ED C2- | C2 B,2 A,B,CD | %49
w: sen- ti-|ro ben, _ _ _|_ tor- men- *|* * * to,|sen- ti- ro|ben _ _ _ _|_ tor- men- * * *|
 E2 F2 E4 | F4 D4 | E2 F2 G2 E2 | DE FG A2 F2 | G2 A2 G4 | F8 | z8 | z2 A3 A A2 | G2 E2 FE FG | %58
w: |to, del|tuo'in- giu- sto gio-|ir _ _ _ _ del|tuo con- ten-|to,||del tuo'in- giu-|sto gio- ir _ _ _|
 A3 G/F/ G2 E2 | F2 G2 F4 | G2 A4 E2 | G4 A2 F2 | E2 C2 CB, CD | E4 z2 E2 | ED EF G4- | G4 z2 A2 | %66
w: _ _ _ _ del|tuo con- ten-|to, del tuo'in-|giu- sto gio|ir, gio- ir, _ _ _|_ gio-|ir _ _ _ _|_ del|
 AG FE F2 A2 | ^G2 A4 G2 | A8 |] %69
w: tuo- * * * * con-|ten- * *|to.|
V:4
 z8 | z8 |"^-natural" z8 | z8 | z8 | z2 A4 G2 | G4 F4 | E4 E4 | z2 EF G4- | G2 D2 E4 | A4 z2 AB | %11
w: |||||ri- ro|cor mi-|o, mo-|ri- ro cor|_ mi- o,|mo- ri- ro,|
 c4 z2 AB | c6 G2 | A4 D4 | z2 C4 C2 | C4 C2 C2 | D4 A4 | z2 d4 ^c2 | d4 A4 | z8 | z8 | z2 d4 ^c2 | %22
w: mo- ri- ro|cor mi-|o, poi|che n'ai|gran de- si-|o, e|mo- ren-|do, e|||mo- ren-|
 d4 c2 _B2 | A4 d4 | e2 f2 e4 | A4 G4- | G2 F2 E4 | E4 e4- | e2 d2 c4 | c2 B2 A4 | z4 G4 | %31
w: do per te,|so- la'u-|be- di- re,|e mo-|_ ren- do,|e mo-|_ ren- do|per te, so-|la'u-|
 A2 _B2 A4 | D2 d2 e3 d | c2 B2 A4 | G4 F4- | F4 G4 | A8 | A8 | z8 | z8 | z8 | z8 | z8 | z8 | %44
w: be- di- re,|non sen- ti- ro|la do- glia|del mo-|_ ri-|re,|sen-|||||||
 z2 G3 G G2 | A3 G FE D2- | D2 d3 d d2 | e3 d cB A2- | A2 ^G2 A4- | A8 | D8 | z8 | z2 d3 d d2 | %53
w: ti- ro ben,|sen- _ _ _ _|_ ti- ro ben|tor- _ _ _ _|_ men- to,||del||tuo'in- giu- sto|
 c2 A2 BA Bc | d4 d4 | e2 A2 e4 | A4 A4 | B2 c2 d2 B2 | AB cd e2 c2 | d2 e2 d4 | c2 A3 A A2 | %61
w: gio- ir, del _ _ _|_ tuo|con- ten- to,|del tuo'in-|giu- sto gio- ir|del _ _ _ _ tuo|con- ten- to,|del tuo'in- giu- sto|
 G2 E2 DE FG | A2 A2 AG AB | c4 z2 c2 | cB cd ed cB | c4 d4 | d4 d4 | e8 | A8 |] %69
w: gio- ir, gio- _ _ _|_ ir, gio- _ _ _|_ ir|del _ _ _ _ _ _ _|_ tuo|con- ten-|to.||

